!!!OTL: Bauerndorf (2-46) S. 147
!!!id: P0919
**kern
*clefG2
*k[f#c#g#]
*D:
{8f#
=1
8a
8dd
16dd
16cc#
8b
=2
8a
8a
8f#}
=3
{8a
=4
8.a
16a
8g
8e
=5
8d
8f#
8a}
=6
{8f#
=7
8a
8dd
16dd
16cc#
8b
=8
8a
8a
8f#}
=9
{8a
=10
8a
8a
8g
8e
=11
4d}
8r
=12
{8cc#
=13
8cc#
8cc#
8b
8a
=14
4g#}
8r
=15
{8g#
=16
8dd
8dd
8g#
8g#
=17
4a}
8r
=18
{8ee
=19
8.ee
16ee
8dd
8cc#
=20
8.ee
16b
8b}
=21
{16b
16b
=22
8cc#
8cc#
8g#
8g#
=23
8a
8a
8a}
=24
{8f#
=25
8a
8dd
16dd
16cc#
8b
=26
8a
8a
8f#}
=27
{8a
=28
8.a
16a
8b
8e
=29
8d
8f#
8a}
=30
{8f#
=31
8f#
8a
16dd
16cc#
8b
=32
8a
8a
8f#}
=33
{8a
=34
8a
8a
8g
8e
=35
4d}
8r
==
*-
!!!minrhy: 16
!!!meters: 2/4 ]  ZZ[12
!!!cut: Bauerndorf (2-46) S. 147
!!!reg: Lothringen
!!!trd: PINCK, Louis: Verklingende Weisen, Bd 2, Metz 1928
!!!rhy1: X_  X_X_XXX_  X_X_X_
!!!rhy2: X_  X_.XX_X_  X_X_X_
!!!key: P0919  16  D 2/4 ]  ZZ[12
!!!mod: ACHTTONSKALA DUR ?]  AMBITUS[9
!!!kad: 35314#5653531
!!!akz: 55_51_55_51_74#_+15_+2+2_75_55_51_35_51_
!!!fot: 'a__b__a__bv_c__d__e__f__a__g__aw_bv_
!!!for: 'a__b__a__c__c__c__d__cw_a__b__a__c__
!!!fok: '^__V__^__\__\__^a_\__\__^__V__^__\__
!! PHRAS[AUFTAKTIG]
!!!fkt: ???, erz&auml;hlendes Lied?
!! LOTH VKL
!! PR[36] 2K[7] 2G[9] 3K[11] 3G[0] 4A[4] 4Ü[0] 5A[0] 6K[0] 6G[0]
!! 7K[0] 7G[0] 8A[0] MEHR[0] SI[31] ABS[45] SR[16] SP[16]
!! ST[12] 2k[7] 2g[11] 3k[9] 3g[2] 4d[2] 4ü[2] 5d[0] 6k[0] 6g[0]
!! 7k[0] 7g[0] 8d[0] mehr[0] si[33] dm[-2] sr[18] sp[16]
!! 1F[17] 2F[70] 3F[13] 4F[0] LF[0] 2P[0] 3P[0] 4P[0] TRI[0] DF[3] AB[46]
!! TF[0] U3K[0] U3[0] U4[0] U4Ü[0] U5[7] U6K[0] U6[4] U7K[0] U7[9]
!! N1[22] N2K[0] N2[17] N3K[0] N3[17] N4[13] N4Ü[0] N5[11] N6K[0] N6[0]
!!!n7k: 0] N7[0] O1[0] O2K[0] O2[0] O3K[0] O3[0] HÖ[0
!!!RNB: symbol: &auml;      = a umlaut  (UTF-8: Å„)
